packages/icons/svg/24/Trash.svg

<svg width="24" height="24" viewBox="0 0 24 24" fill="none" xmlns="http://www.w3.org/2000/svg">
<path d="M9 4H15V5H17.5C18.0523 5 18.5 5.44772 18.5 6C18.5 6.55228 18.0523 7 17.5 7H6.5C5.94772 7 5.5 6.55228 5.5 6C5.5 5.44772 5.94772 5 6.5 5H9V4Z" fill="#858585"/>
<path d="M7.01047 8C6.45412 8 6.00473 8.45409 6.01053 9.01042L6.11469 19.0104C6.1204 19.5586 6.56641 20 7.11464 20H17C17.5523 20 18 19.5523 18 19V9C18 8.44772 17.5523 8 17 8H7.01047Z" fill="#858585"/>
</svg>

<svg width="24" height="24" fill="none" xmlns="http://www.w3.org/2000/svg" viewBox="0 0 24 24"><path d="M9 4h6v1h2.5a1 1 0 110 2h-11a1 1 0 010-2H9V4zM7.01 8a1 1 0 00-1 1.01l.105 10a1 1 0 001 .99H17a1 1 0 001-1V9a1 1 0 00-1-1H7.01z" fill="currentColor"></path></svg>
